X: 20588
T: John O'Dwyer Of The Glen
R: waltz
M: 3/4
K: Dmajor
de|f3g a{bab}g/e/|f4 e{fef}d/c/|dd/c/ dd/c/ d2|{d}e4 AB|
cd/e/{f} d2 cA|B2{B} B2 A{BAB}G/F/|G2{AG}FG (A2|1 A4 A):|2 A6||
AB|c3A cd|{d}ef3 g(a|a3)b ag/f/|g(a3 a)g|
f3g ec|de3 ce|dc A3{BA}G|A8||

